!!!SOCIAL_FUNCTION:	songs for success in hunting
!!!PDT:	1956
!!!OTL: No_211_They_Are_Feeding.krn
!!!LANG: Non-Tone
!!!LING_GROUP: Muskogean
!!!REG: Florida
**kern
*staff1
=1-
*clefF4
*k[f#c#g#d#]
*M3/8
(16G#\LL
16E\JJ)
4G#\
=2
4E\
8r
=3
(16E/LL
16C#/JJ)
4BB/
=4
4.E\
=5
(16G#\LL
16E\JJ)
4G#\
=6
4E\
8r
=7
(16E/LL
16C#/JJ)
4BB/
=8
4E\
16G#\LL
16G#\JJ
=9||
*M4/8
4G#\
(16G#\LL
16E\JJ)
8G#\
=10||
*M3/8
4E\
8r
=11
(16E/LL
16C#/JJ)
4BB/
=12
4.E\
=13
(16G#\LL
16E\JJ)
4G#\
=14
4E\
8r
=15
(16E/LL
16C#/JJ)
4BB/
=16
4E\
8r
=17
4r
16G#\LL
16G#\JJ
=18||
*M4/8
4G#\
(16G#\LL
16E\JJ)
8G#\
=19||
*M3/8
4E\
8r
=20
(16E/LL
16C#/JJ)
4BB/
=21
4.E\
=22
(16G#\LL
16E\JJ)
4G#\
=23
4E\
8r
=24
(16E/LL
16C#/JJ)
4BB/
=25
4E\
8r
=26
4r
16G#\LL
16G#\JJ
=27||
*M4/8
4G#\
(16G#\LL
16E\JJ)
8G#\
=28||
*M3/8
4E\
8r
=29
(16E/LL
16C#/JJ)
4BB/
=30
4.E\
=31
(16G#\LL
16E\JJ)
4G#\
=32
4E\
8r
=33
(16E/LL
16C#/JJ)
4BB/
=34
4E\
16G#\LL
16G#\JJ
=35||
*M2/4
4E\
8G#\L
8E\J
=36||
*M3/4
[2G#\
8G#/L]
8BB/J
=37
16BB/LL
16BB/J
8BB/J
8C#/L
8BB/J
4r
==
*-
